X:1
T:Title
%%score { ( 1 3 ) | ( 2 4 ) }
L:1/8
M:6/4
K:G
V:1 treble nm="Grand Piano"
V:3 treble 
V:2 bass 
V:4 bass 
V:1
 z6 z4[Q:1/4=114] [B,D]2 | [B,D]2 [B,E]2 [B,F]2 [B,G]2 [CA]2 [^C_B]2 | [DB]6 [Gd]4 [Gd]2 | %3
 [Fd]2 [FA]2 [GB]2 [Ac]2 [GB]2 [FA]2 | B6- B4 D2 | D2 E2 F2 G2 A2 _B2 | B6 d4 d2 | %7
 ^c2 B2 A2 e2 d2 c2 |[M:5/4] [Fd-]4 [Gd-]2 [Ad]4 |[M:1/4] [Fc]2 | %10
[M:6/4] [GB]2 [B,D]2 [CE]2 [B,G]2 [CA]2 [B,G]2 | B2- [EB-]2 [GB-]2 [DB]4 d2 | %12
 [Fd]2 [FA]2 [GB]2 [Ac]2 [GB]2 [FA]2 | B12 | B2 B2 c2 d2 c2 B2 | %15
[M:15/8] [EA]2 [EA]-[EA] [EB]2 [Ec]6 [Ge]3 |[M:6/4] [Gd]2 [DGB]2 [^CG]2 [DGB]2 [DGB]2 [=CFA]2 | %17
[M:5/4] G2- G2- G4- G3/2 z/ |] %18
V:2
 z6 z4 [G,,G,]2 | [G,,G,]2 [G,,F,]2 [G,,E,]2 [G,,D,]2 [G,,G,]2 [G,,E,]2 | %2
 [G,,D,]6 [G,,B,]4 [G,B,]2 | [D,A,]2 [D,C]2 [D,D]2 [D,D]2 [D,D]2 [D,D]2 | %4
 [G,DG]6- [G,DG]4 [G,B,]2 | [G,B,]2 [G,_B,]2[K:bass] [G,B,]2 [G,=B,]2 [G,C]2 [G,^C]2 | %6
 [G,D]6[K:treble] [G,B,G]4 [G,B,G]2 | [A,G]2 [A,DG]2 [A,^CG]2 [A,CG]2 [A,DF]2 [A,EG]2 | %8
[M:5/4][K:bass] z2 A,2 B,2 C4 |[M:1/4] [D,A,]2 | %10
[M:6/4] [G,,G,]2 [G,,G,]2 [G,,G,]2 [G,,D,]2 [G,,D,]2 [G,,D,]2 | %11
 [G,,G,]2 [B,,G,]2 [D,G,]2 G,4 [G,B,G]2 | [D,A,]2 [D,D]2 [D,D]2 [D,D]2 [D,D]2 [D,D]2 | %13
 [G,DG]2 [D,D]2 B,,2 G,,4[K:treble] [G,DG]2 | [G,DG]2 [G,DG]2 [A,DF]2 [B,DG]2 [A,DF]2 [G,D=F]2 | %15
[M:15/8][K:bass] [C,C]2 [C,C]-[C,C] [B,,^G,]2 [A,,A,]6 [^C,_B,]3 | %16
[M:6/4] [D,B,]2 D,2 E,2 D,2 D,2 D,2 |[M:5/4] z4 C2 B,4 |] %18
V:3
 x12 | x12 | x12 | x12 | x12 | x12 | x12 | x12 |[M:5/4] D2 z2 z2 z4 |[M:1/4] x2 |[M:6/4] x12 | %11
 .D6 z6 | x12 | z2 F2 [DE]2 D4 B2 | x12 |[M:15/8] x15 |[M:6/4] x12 |[M:5/4] B,4 E2 D4 |] %18
V:4
 x12 | x12 | x12 | x12 | x12 | x4[K:bass] x8 | x6[K:treble] x6 | x12 | %8
[M:5/4][K:bass] D,2- D,2- D,4- D,3/2 z/ |[M:1/4] x2 |[M:6/4] x12 | x12 | x12 | x10[K:treble] x2 | %14
 x12 |[M:15/8][K:bass] x15 |[M:6/4] x12 |[M:5/4] G,,2- G,,2- G,,6 |] %18

